web/packages/design/src/ResourceIcon/assets/loom.svg

<svg width="72" height="72" viewBox="0 0 72 72" fill="none" xmlns="http://www.w3.org/2000/svg">
<g clip-path="url(#clip0_8803_4404)">
<path d="M72 32.232H50.0665L69.061 21.264L65.2942 14.736L46.2974 25.704L57.2617 6.708L50.7359 2.94L39.7691 21.9312V0H32.2309V21.9336L21.2641 2.94L14.7359 6.708L25.7002 25.6992L6.70816 14.736L2.93902 21.264L21.9335 32.232H0V39.7704H21.9311L2.93902 50.7384L6.70576 57.2664L25.7026 46.2984L14.7359 65.2944L21.2617 69.0624L32.2309 50.0688V72H39.7691V49.5984L50.9374 68.9424L57.0578 65.4096L45.8871 46.0608L65.2894 57.264L69.0586 50.736L50.0665 39.768H71.9976L72 32.232ZM36 46.248C34.6543 46.2482 33.3218 45.9832 32.0786 45.4682C30.8353 44.9532 29.7056 44.1983 28.7539 43.2466C27.8023 42.2949 27.0474 41.1649 26.5323 39.9214C26.0172 38.6778 25.752 37.3449 25.7518 35.9988C25.7517 34.6527 26.0165 33.3197 26.5314 32.0761C27.0462 30.8324 27.8008 29.7023 28.7522 28.7503C29.7036 27.7984 30.8332 27.0432 32.0763 26.5279C33.3195 26.0126 34.6519 25.7474 35.9976 25.7472C38.7153 25.7469 41.3218 26.8265 43.2437 28.7486C45.1656 30.6707 46.2455 33.2778 46.2458 35.9964C46.2461 38.715 45.1668 41.3223 43.2454 43.2449C41.3239 45.1674 38.7177 46.2477 36 46.248Z" fill="#625DF5"/>
</g>
<defs>
<clipPath id="clip0_8803_4404">
<rect width="72" height="72" fill="white"/>
</clipPath>
</defs>
</svg>

<svg xmlns="http://www.w3.org/2000/svg" width="72" height="72" fill="none" viewBox="0 0 72 72"><g clip-path="url(#a)"><path fill="#625df5" d="M72 32.232H50.066l18.995-10.968-3.767-6.528-18.997 10.968L57.262 6.708 50.736 2.94 39.769 21.931V0h-7.538v21.934L21.264 2.94l-6.528 3.768L25.7 25.699 6.708 14.736 2.94 21.264l18.995 10.968H0v7.538h21.931L2.94 50.738l3.767 6.528 18.997-10.968-10.967 18.996 6.526 3.768L32.23 50.07V72h7.538V49.598l11.168 19.344 6.12-3.532-11.17-19.35L65.29 57.265l3.77-6.528-18.992-10.968h21.93zM36 46.248a10.24 10.24 0 0 1-9.468-6.327 10.255 10.255 0 0 1 5.544-13.393 10.245 10.245 0 0 1 14.17 9.468A10.253 10.253 0 0 1 36 46.248"/></g><defs><clipPath id="a"><path fill="#fff" d="M0 0h72v72H0z"/></clipPath></defs></svg>
